images/users/hackeryou.svg

<svg width="500" height="200" viewBox="0 0 419 77" xmlns="http://www.w3.org/2000/svg"><title>logo-hackeryou-f654500871e4803de9c519f79904f073 + hackerYou</title><g fill="none" fill-rule="evenodd"><path fill="#D12026" d="M0 0h77v77H0z"/><g fill="#FFF"><path d="M20.51 20.74l14.15 14.19-14.194 14.235-3.04-2.998L28.62 34.973l-11.195-11.15 3.085-3.082zM33.216 53.598v-4.53h23.402v4.53H33.216z"/></g><path d="M100.672 19.976h-9.504V68h9.504V51.008c0-4.104.216-5.616 1.008-7.128 1.224-2.52 3.528-3.888 6.408-3.888 2.232 0 4.032.792 5.04 2.16.792 1.152 1.08 2.448 1.08 5.4V68h9.504V45.896c0-4.248-.504-6.624-1.8-8.712-2.016-3.168-5.688-4.968-10.296-4.968-4.68 0-8.856 2.232-10.944 5.76v-18zM161.728 68c-.936-2.304-1.224-4.392-1.224-9.36v-2.592c.072-3.096.072-5.328.072-6.696.072-4.032.072-4.104.072-4.968 0-5.04-.648-6.84-3.024-8.784-2.664-2.16-6.912-3.312-12.312-3.312-10.008 0-15.48 3.96-16.056 11.592h9c.648-3.816 2.448-5.184 6.84-5.184 4.248 0 6.264 1.512 6.264 4.536 0 2.808-.936 3.24-8.424 4.176-5.184.72-7.2 1.08-9.072 1.944-4.032 1.656-6.12 4.824-6.12 9.072 0 6.552 4.608 10.512 12.168 10.512 4.752 0 8.496-1.44 11.52-4.32 0 1.224.072 1.8.576 3.384h9.72zm-10.44-13.032c0 2.376-.36 3.528-1.584 4.896-1.728 1.872-4.104 2.88-6.84 2.88-3.312 0-5.328-1.8-5.328-4.68 0-3.168 1.728-4.464 7.056-5.256 3.888-.504 5.184-.864 6.696-1.8v3.96zm39.24-.288c-.72 4.608-3.312 7.056-7.416 7.056-5.112 0-8.136-4.032-8.136-11.016 0-7.128 3.096-11.232 8.352-11.232 3.672 0 6.192 2.16 6.912 5.904h9.36c-.792-8.064-7.056-13.104-16.344-13.104-10.8 0-17.856 7.344-17.856 18.648 0 10.872 7.056 18 17.712 18 9.288 0 15.48-5.328 16.704-14.256h-9.288zm46.8-21.456h-11.304l-12.24 12.456V19.976h-9.504V68h9.504V56.192l3.888-3.672L227.248 68h11.592l-14.616-21.888 13.104-12.888zM264.256 57.2c-1.44 3.456-3.6 4.896-7.128 4.896-5.112 0-7.92-3.168-8.136-9h24.984v-1.44c0-11.664-6.84-19.368-17.208-19.368-10.08 0-17.496 7.848-17.496 18.504 0 10.872 7.128 18.144 17.784 18.144 8.136 0 14.472-4.608 16.344-11.736h-9.144zm-15.264-10.224c.504-4.824 3.528-7.848 7.776-7.848 4.248 0 6.912 2.808 7.488 7.848h-15.264zm52.272-14.328c-1.008-.144-1.44-.144-2.16-.144-5.04 0-8.712 2.304-11.232 7.128v-6.408H278.8V68h9.504V53.456c0-4.104.36-6.336 1.44-8.064 1.584-2.736 4.392-4.32 7.776-4.32 1.08 0 2.016.072 3.744.36v-8.784zm43.632-12.672h-11.664l-11.304 19.728-11.304-19.728h-11.952L316.6 49.352V68h10.44V49.496l17.856-29.52zm18.432 12.312c-11.088 0-18.36 7.272-18.36 18.36 0 10.944 7.2 18.288 18.072 18.288 10.8 0 17.928-7.272 17.928-18.36 0-10.944-7.128-18.288-17.64-18.288zm-.288 7.056c5.184 0 8.352 4.32 8.352 11.232 0 7.056-3.096 11.304-8.352 11.304-5.328 0-8.496-4.176-8.496-11.232 0-7.128 3.168-11.304 8.496-11.304zm55.296-6.12h-9.504v17.28c0 3.6-.288 5.4-1.008 6.768-1.296 2.52-3.6 3.888-6.552 3.888-2.304 0-4.104-.792-5.112-2.304-.792-1.224-.936-2.448-.936-6.408V33.224h-9.504v22.032c0 4.68.648 7.416 2.304 9.504 2.16 2.664 5.616 4.176 9.72 4.176 4.968 0 8.712-1.872 11.52-5.832V68h9.072V33.224z" fill="#231F20"/></g></svg>

<?xml version="1.0" encoding="UTF-8" standalone="no"?>
<svg width="419px" height="77px" viewBox="0 0 419 77" version="1.1" xmlns="http://www.w3.org/2000/svg" xmlns:xlink="http://www.w3.org/1999/xlink" xmlns:sketch="http://www.bohemiancoding.com/sketch/ns">
    <!-- Generator: Sketch 3.4 (15575) - http://www.bohemiancoding.com/sketch -->
    <title>logo-hackeryou-f654500871e4803de9c519f79904f073 + hackerYou</title>
    <desc>Created with Sketch.</desc>
    <defs></defs>
    <g id="Page-1" stroke="none" stroke-width="1" fill="none" fill-rule="evenodd" sketch:type="MSPage">
        <g id="logo-hackeryou-f654500871e4803de9c519f79904f073-+-hackerYou" sketch:type="MSLayerGroup">
            <g id="logo-hackeryou-f654500871e4803de9c519f79904f073" sketch:type="MSShapeGroup">
                <g id="Group">
                    <rect id="Rectangle-path" fill="#D12026" x="0" y="0" width="77" height="77"></rect>
                    <g transform="translate(17.362745, 20.382353)" id="Shape" fill="#FFFFFF">
                        <path d="M3.14718627,0.358578431 L17.2963137,14.5469608 L3.10340196,28.7821471 L0.0619019608,25.7844314 L11.2578529,14.5907451 L0.0619019608,3.44084314 L3.14718627,0.358578431 L3.14718627,0.358578431 Z"></path>
                        <path d="M15.8529412,33.2156863 L15.8529412,28.6862745 L39.254902,28.6862745 L39.254902,33.2156863 L15.8529412,33.2156863 L15.8529412,33.2156863 Z"></path>
                    </g>
                </g>
            </g>
            <path d="M100.672,19.976 L91.168,19.976 L91.168,68 L100.672,68 L100.672,51.008 C100.672,46.904 100.888,45.392 101.68,43.88 C102.904,41.36 105.208,39.992 108.088,39.992 C110.32,39.992 112.12,40.784 113.128,42.152 C113.92,43.304 114.208,44.6 114.208,47.552 L114.208,68 L123.712,68 L123.712,45.896 C123.712,41.648 123.208,39.272 121.912,37.184 C119.896,34.016 116.224,32.216 111.616,32.216 C106.936,32.216 102.76,34.448 100.672,37.976 L100.672,19.976 Z M161.728,68 C160.792,65.696 160.504,63.608 160.504,58.64 L160.504,56.048 C160.576,52.952 160.576,50.72 160.576,49.352 C160.648,45.32 160.648,45.248 160.648,44.384 C160.648,39.344 160,37.544 157.624,35.6 C154.96,33.44 150.712,32.288 145.312,32.288 C135.304,32.288 129.832,36.248 129.256,43.88 L138.256,43.88 C138.904,40.064 140.704,38.696 145.096,38.696 C149.344,38.696 151.36,40.208 151.36,43.232 C151.36,46.04 150.424,46.472 142.936,47.408 C137.752,48.128 135.736,48.488 133.864,49.352 C129.832,51.008 127.744,54.176 127.744,58.424 C127.744,64.976 132.352,68.936 139.912,68.936 C144.664,68.936 148.408,67.496 151.432,64.616 C151.432,65.84 151.504,66.416 152.008,68 L161.728,68 Z M151.288,54.968 C151.288,57.344 150.928,58.496 149.704,59.864 C147.976,61.736 145.6,62.744 142.864,62.744 C139.552,62.744 137.536,60.944 137.536,58.064 C137.536,54.896 139.264,53.6 144.592,52.808 C148.48,52.304 149.776,51.944 151.288,51.008 L151.288,54.968 Z M190.528,54.68 C189.808,59.288 187.216,61.736 183.112,61.736 C178,61.736 174.976,57.704 174.976,50.72 C174.976,43.592 178.072,39.488 183.328,39.488 C187,39.488 189.52,41.648 190.24,45.392 L199.6,45.392 C198.808,37.328 192.544,32.288 183.256,32.288 C172.456,32.288 165.4,39.632 165.4,50.936 C165.4,61.808 172.456,68.936 183.112,68.936 C192.4,68.936 198.592,63.608 199.816,54.68 L190.528,54.68 Z M237.328,33.224 L226.024,33.224 L213.784,45.68 L213.784,19.976 L204.28,19.976 L204.28,68 L213.784,68 L213.784,56.192 L217.672,52.52 L227.248,68 L238.84,68 L224.224,46.112 L237.328,33.224 Z M264.256,57.2 C262.816,60.656 260.656,62.096 257.128,62.096 C252.016,62.096 249.208,58.928 248.992,53.096 L273.976,53.096 L273.976,51.656 C273.976,39.992 267.136,32.288 256.768,32.288 C246.688,32.288 239.272,40.136 239.272,50.792 C239.272,61.664 246.4,68.936 257.056,68.936 C265.192,68.936 271.528,64.328 273.4,57.2 L264.256,57.2 Z M248.992,46.976 C249.496,42.152 252.52,39.128 256.768,39.128 C261.016,39.128 263.68,41.936 264.256,46.976 L248.992,46.976 Z M301.264,32.648 C300.256,32.504 299.824,32.504 299.104,32.504 C294.064,32.504 290.392,34.808 287.872,39.632 L287.872,33.224 L278.8,33.224 L278.8,68 L288.304,68 L288.304,53.456 C288.304,49.352 288.664,47.12 289.744,45.392 C291.328,42.656 294.136,41.072 297.52,41.072 C298.6,41.072 299.536,41.144 301.264,41.432 L301.264,32.648 Z M344.896,19.976 L333.232,19.976 L321.928,39.704 L310.624,19.976 L298.672,19.976 L316.6,49.352 L316.6,68 L327.04,68 L327.04,49.496 L344.896,19.976 Z M363.328,32.288 C352.24,32.288 344.968,39.56 344.968,50.648 C344.968,61.592 352.168,68.936 363.04,68.936 C373.84,68.936 380.968,61.664 380.968,50.576 C380.968,39.632 373.84,32.288 363.328,32.288 L363.328,32.288 Z M363.04,39.344 C368.224,39.344 371.392,43.664 371.392,50.576 C371.392,57.632 368.296,61.88 363.04,61.88 C357.712,61.88 354.544,57.704 354.544,50.648 C354.544,43.52 357.712,39.344 363.04,39.344 L363.04,39.344 Z M418.336,33.224 L408.832,33.224 L408.832,50.504 C408.832,54.104 408.544,55.904 407.824,57.272 C406.528,59.792 404.224,61.16 401.272,61.16 C398.968,61.16 397.168,60.368 396.16,58.856 C395.368,57.632 395.224,56.408 395.224,52.448 L395.224,33.224 L385.72,33.224 L385.72,55.256 C385.72,59.936 386.368,62.672 388.024,64.76 C390.184,67.424 393.64,68.936 397.744,68.936 C402.712,68.936 406.456,67.064 409.264,63.104 L409.264,68 L418.336,68 L418.336,33.224 Z" id="hackerYou" fill="#231F20" sketch:type="MSShapeGroup"></path>
        </g>
    </g>
</svg>
